packages/core/src/svg/icon-food.svg

<?xml version="1.0" encoding="UTF-8"?>
<svg xmlns="http://www.w3.org/2000/svg" width="100%" height="100%" viewBox="0 0 24 24">
  <path d="M13.9714253,10.9514872 C14.1495802,10.7554905 14.4021203,10.6437617 14.6669574,10.6437617 L15.7581797,10.6437617 C16.2917391,10.6437617 16.8001765,10.4170603 17.1567126,10.0201253 L21,5.74180501 L20.4183844,5.16018943 L17.5935184,7.98505543 L17.1781003,7.56963729 L19.9198676,4.66167257 L19.3382897,4.08009472 L16.4303627,6.821862 L16.0149068,6.40648158 L18.8397728,3.58161558 L18.258195,3 L13.9798747,6.84324964 C13.5829397,7.19982348 13.3562006,7.70826089 13.3562006,8.24182028 L13.3562006,9.4018829 C13.3562006,9.66513571 13.2458298,9.91628017 13.0519453,10.0943219 L11.7379445,11.309155 L3.64251505,3.18784912 C3.39091794,2.93621428 2.96044924,3.14269743 3.00292275,3.49606501 C3.24086497,5.47538366 4.30553191,7.76171113 6.54153997,9.99771918 L8.18653998,11.6427569 L9.95854562,11.6427569 L10.5907069,12.3698613 L4.03439548,18.4314657 L5.65114268,20.0338036 L11.6041869,13.5355065 L17.3328306,20.1243333 L18.9900521,18.5844608 L12.7310553,12.305472 L13.9714253,10.9514872 Z" />
</svg>

<?xml version="1.0" encoding="UTF-8"?><svg viewBox="0 0 24 24" xmlns="http://www.w3.org/2000/svg"><path d="m13.971 10.951c0.17815-0.196 0.4307-0.30773 0.69553-0.30773h1.0912c0.53356 0 1.042-0.2267 1.3985-0.62364l3.8433-4.2783-0.58162-0.58162-2.8249 2.8249-0.41542-0.41542 2.7418-2.908-0.58158-0.58158-2.9079 2.7418-0.41546-0.41538 2.8249-2.8249-0.58158-0.58162-4.2783 3.8432c-0.39694 0.35657-0.62367 0.86501-0.62367 1.3986v1.1601c0 0.26325-0.11037 0.5144-0.30426 0.69244l-1.314 1.2148-8.0954-8.1213c-0.2516-0.25163-0.68207-0.045152-0.63959 0.30822 0.23794 1.9793 1.3026 4.2656 3.5386 6.5017l1.645 1.645h1.772l0.63216 0.7271-6.5563 6.0616 1.6167 1.6023 5.953-6.4983 5.7286 6.5888 1.6572-1.5399-6.259-6.279 1.2404-1.354z"/></svg>
